X:32
T:E. A. Grow's Q.S. 
C:By A.F. Hopkins National Fife Major
B:American Veteran Vifer #32
M:2/4
L:1/16
Q:1/8=180
K:G
|:G2B2A2B2|GBde d2d2|(df)gg (df)gg|(ea)ab a2a2|G2B2A2B2|GBde d2d2|g2bg (ab)ge|d2f2 g4 :|
K:D
|:a2a2 -abag|(fa)ge f2d2|Ac(ea) Ac(ea)|gefb a2f2|a2a2 -abag|(fa)ge f2d2|Ac(ea) Ac(ea)|d2f2 d4 :|
